src/actions/16/key-enter.svg

<svg xmlns="http://www.w3.org/2000/svg" viewBox="0 0 16 16">
    <path d="M7 2v5H2v7h12V2H7zm1 1h5v10H3V8h5V3zm3 1v6H8V9l-3 1.5L8 12v-1h4V4h-1z" style="fill:currentColor;fill-opacity:1;stroke:none;color:#050505;opacity:.7"/>
</svg>

<svg xmlns="http://www.w3.org/2000/svg" viewBox="0 0 16 16">
  <defs id="defs3051">
    <style type="text/css" id="current-color-scheme">
      .ColorScheme-Text {
        color:#363636;
      }
      </style>
  </defs>
 <path style="fill:currentColor;fill-opacity:1;stroke:none" 
     d="M 7 2 L 7 7 L 2 7 L 2 14 L 14 14 L 14 2 L 7 2 z M 8 3 L 13 3 L 13 13 L 3 13 L 3 8 L 8 8 L 8 3 z M 11 4 L 11 10 L 8 10 L 8 9 L 5 10.5 L 8 12 L 8 11 L 12 11 L 12 4 L 11 4 z "
     class="ColorScheme-Text"
     />
</svg>
